client/public/assets/icons/utility/builder.svg

<?xml version="1.0"?><svg xmlns="http://www.w3.org/2000/svg" width="52" height="52" viewBox="0 0 52 52"><g fill="#fff"><path d="m11.5 17h-8c-0.8 0-1.5 0.7-1.5 1.5v25.5c0 2.2 1.8 4 4 4h5.5c0.8 0 1.5-0.7 1.5-1.5v-28c0-0.8-0.7-1.5-1.5-1.5z m37 0h-30c-0.8 0-1.5 0.7-1.5 1.5v28c0 0.8 0.7 1.5 1.5 1.5h27.5c2.2 0 4-1.8 4-4v-25.5c0-0.8-0.7-1.5-1.5-1.5z m-2.5-13h-40c-2.2 0-4 1.8-4 4v3.5c0 0.8 0.7 1.5 1.5 1.5h45c0.8 0 1.5-0.7 1.5-1.5v-3.5c0-2.2-1.8-4-4-4z"></path></g></svg>

<?xml version="1.0" encoding="utf-8"?>
<!-- Generator: Adobe Illustrator 18.1.1, SVG Export Plug-In . SVG Version: 6.00 Build 0)  -->
<svg version="1.1" id="Layer_1" xmlns="http://www.w3.org/2000/svg" xmlns:xlink="http://www.w3.org/1999/xlink" x="0px" y="0px"
	 width="52px" height="52px" viewBox="0 0 52 52" enable-background="new 0 0 52 52" xml:space="preserve">
<g>
	<path fill="#FFFFFF" d="M11.5,17h-8C2.7,17,2,17.7,2,18.5V44c0,2.2,1.8,4,4,4h5.5c0.8,0,1.5-0.7,1.5-1.5v-28
		C13,17.7,12.3,17,11.5,17z"/>
	<path fill="#FFFFFF" d="M48.5,17h-30c-0.8,0-1.5,0.7-1.5,1.5v28c0,0.8,0.7,1.5,1.5,1.5H46c2.2,0,4-1.8,4-4V18.5
		C50,17.7,49.3,17,48.5,17z"/>
	<path fill="#FFFFFF" d="M46,4H6C3.8,4,2,5.8,2,8v3.5C2,12.3,2.7,13,3.5,13h45c0.8,0,1.5-0.7,1.5-1.5V8C50,5.8,48.2,4,46,4z"/>
</g>
</svg>
